img/icones/rastreador.svg

<svg width="32" height="32" viewBox="0 0 32 32" fill="none" xmlns="http://www.w3.org/2000/svg">
<path d="M15.9997 10.6667C13.053 10.6667 10.6663 13.0534 10.6663 16C10.6663 18.9467 13.053 21.3334 15.9997 21.3334C18.9463 21.3334 21.333 18.9467 21.333 16C21.333 13.0534 18.9463 10.6667 15.9997 10.6667ZM27.9197 14.6667C27.6177 11.9629 26.4052 9.44209 24.4814 7.5183C22.5576 5.59451 20.0368 4.38206 17.333 4.08004V2.66671C17.333 1.93337 16.733 1.33337 15.9997 1.33337C15.2663 1.33337 14.6663 1.93337 14.6663 2.66671V4.08004C11.9625 4.38206 9.44173 5.59451 7.51793 7.5183C5.59414 9.44209 4.38169 11.9629 4.07967 14.6667H2.66634C1.93301 14.6667 1.33301 15.2667 1.33301 16C1.33301 16.7334 1.93301 17.3334 2.66634 17.3334H4.07967C4.38169 20.0372 5.59414 22.558 7.51793 24.4818C9.44173 26.4056 11.9625 27.618 14.6663 27.92V29.3334C14.6663 30.0667 15.2663 30.6667 15.9997 30.6667C16.733 30.6667 17.333 30.0667 17.333 29.3334V27.92C20.0368 27.618 22.5576 26.4056 24.4814 24.4818C26.4052 22.558 27.6177 20.0372 27.9197 17.3334H29.333C30.0663 17.3334 30.6663 16.7334 30.6663 16C30.6663 15.2667 30.0663 14.6667 29.333 14.6667H27.9197V14.6667ZM15.9997 25.3334C10.8397 25.3334 6.66634 21.16 6.66634 16C6.66634 10.84 10.8397 6.66671 15.9997 6.66671C21.1597 6.66671 25.333 10.84 25.333 16C25.333 21.16 21.1597 25.3334 15.9997 25.3334Z" fill="url(#paint0_linear_20_352)"/>
<defs>
<linearGradient id="paint0_linear_20_352" x1="15.9997" y1="1.33337" x2="15.9997" y2="30.6667" gradientUnits="userSpaceOnUse">
<stop stop-color="#F5C20A"/>
<stop offset="1" stop-color="#F2A60C"/>
</linearGradient>
</defs>
</svg>

<svg width="32" height="32" fill="none" xmlns="http://www.w3.org/2000/svg"><path d="M16 10.667A5.332 5.332 0 0 0 10.666 16 5.332 5.332 0 0 0 16 21.333 5.332 5.332 0 0 0 21.333 16 5.332 5.332 0 0 0 16 10.667Zm11.92 4A11.992 11.992 0 0 0 17.333 4.08V2.667c0-.734-.6-1.334-1.333-1.334-.734 0-1.334.6-1.334 1.334V4.08A11.992 11.992 0 0 0 4.08 14.667H2.666c-.733 0-1.333.6-1.333 1.333s.6 1.333 1.333 1.333H4.08A11.992 11.992 0 0 0 14.666 27.92v1.413c0 .734.6 1.334 1.334 1.334.733 0 1.333-.6 1.333-1.334V27.92A11.992 11.992 0 0 0 27.92 17.333h1.413c.733 0 1.333-.6 1.333-1.333s-.6-1.333-1.333-1.333H27.92ZM16 25.333A9.327 9.327 0 0 1 6.666 16 9.326 9.326 0 0 1 16 6.667 9.326 9.326 0 0 1 25.333 16 9.327 9.327 0 0 1 16 25.333Z" fill="url(#a)"/><defs><linearGradient id="a" x1="16" y1="1.333" x2="16" y2="30.667" gradientUnits="userSpaceOnUse"><stop stop-color="#F5C20A"/><stop offset="1" stop-color="#F2A60C"/></linearGradient></defs></svg>
